sitelenpona/static/ni-4.svg

<svg xmlns="http://www.w3.org/2000/svg" xmlns:xlink="http://www.w3.org/1999/xlink" version="1.1" viewBox="33 213 721 374">
   <path fill="currentColor" d="M238 259q4 0 24.5 -14.5t34.5 -14.5q7 0 16 11t9 18q0 8 -10.5 29t-14.5 21q-9 0 -24 6.5t-28 14t-14 7.5q-24 6 -1 13q24 7 109 10l53.5 2.5t54.5 2.5q29 0 72.5 -6t47.5 -10q1 -1 25 -1q48 0 74.5 2.5t32.5 5.5t11 9q11 14 9 24q-3 14 -11.5 18.5t-34.5 4.5l-24.5 -0.5 t-26.5 -0.5q-21 0 -33.5 3t-46.5 4l-66.5 2.5t-68.5 2.5q-23 0 -95.5 -2t-93.5 -2q-34 0 -34 5q0 3 5.5 10.5t9.5 7.5t18 14t17 14q8 0 41 29t33 44q0 7 -11 18q-9 8 -12.5 9t-16.5 -4q-14 -6 -23 -16t-46 -28q-20 -10 -46 -33t-37 -41q-9 -13 -22 -24.5t-20.5 -20 t-7.5 -21.5t8.5 -22t14.5 -10q5 -1 42 -23.5t45 -30.5q8 -7 21.5 -14.5t22.5 -12t9 -6.5q0 -4 9 -4z"/>
</svg>

<svg xmlns="http://www.w3.org/2000/svg" xmlns:xlink="http://www.w3.org/1999/xlink" version="1.1" viewBox="33 212 721 376">
  <g>
    <path fill="currentColor" d="M 238.0,259.0 Q 242.0,259.0 262.5,244.5 Q 283.0,230.0 297.0,230.0 Q 304.0,230.0 313.0,241.0 Q 322.0,252.0 322.0,259.0 Q 322.0,267.0 311.5,288.0 Q 301.0,309.0 297.0,309.0 Q 288.0,309.0 273.0,315.5 Q 258.0,322.0 245.0,329.5 Q 232.0,337.0 231.0,337.0 Q 207.0,343.0 230.0,350.0 Q 254.0,357.0 339.0,360.0 L 392.5,362.5 Q 392.5,362.5 447.0,365.0 Q 476.0,365.0 519.5,359.0 Q 563.0,353.0 567.0,349.0 Q 568.0,348.0 592.0,348.0 Q 640.0,348.0 666.5,350.5 Q 693.0,353.0 699.0,356.0 Q 705.0,359.0 710.0,365.0 Q 721.0,379.0 719.0,389.0 Q 716.0,403.0 707.5,407.5 Q 699.0,412.0 673.0,412.0 L 648.5,411.5 Q 648.5,411.5 622.0,411.0 Q 601.0,411.0 588.5,414.0 Q 576.0,417.0 542.0,418.0 L 475.5,420.5 Q 475.5,420.5 407.0,423.0 Q 384.0,423.0 311.5,421.0 Q 239.0,419.0 218.0,419.0 Q 184.0,419.0 184.0,424.0 Q 184.0,427.0 189.5,434.5 Q 195.0,442.0 199.0,442.0 Q 203.0,442.0 217.0,456.0 Q 231.0,470.0 234.0,470.0 Q 242.0,470.0 275.0,499.0 Q 308.0,528.0 308.0,543.0 Q 308.0,550.0 297.0,561.0 Q 288.0,569.0 284.5,570.0 Q 281.0,571.0 268.0,566.0 Q 254.0,560.0 245.0,550.0 Q 236.0,540.0 199.0,522.0 Q 179.0,512.0 153.0,489.0 Q 127.0,466.0 116.0,448.0 Q 107.0,435.0 94.0,423.5 Q 81.0,412.0 73.5,403.5 Q 66.0,395.0 66.0,382.0 Q 66.0,369.0 74.5,360.0 Q 83.0,351.0 89.0,350.0 Q 94.0,349.0 131.0,326.5 Q 168.0,304.0 176.0,296.0 Q 184.0,289.0 197.5,281.5 Q 211.0,274.0 220.0,269.5 Q 229.0,265.0 229.0,263.0 Q 229.0,259.0 238.0,259.0"/>
  </g>
</svg>
